X: 4266
M: 6/8
L: 1/8
K: A
E |\
EFG AGA | F2B B3  | G2e e3  | c2A AGF |\
EFG AGA | F2B B2A | GAB AGF | E3- E2 :|
|: d |\
cBc ABc | d3- d2c | BAB GAB | c3- c2B |\


